svgs/gallery_go.svg

<svg width="24" height="24" viewBox="0 0 24 24" fill="none" xmlns="http://www.w3.org/2000/svg">
<path d="M7 10.1989V13.8983C8.61381 14.0987 9.5 14.5 10.5 15.5H14.8115C14.0277 13.8671 13.042 13.0726 11.5558 12.0371C10.0696 11.0017 8.80334 10.3685 7 10.1989Z" fill="black"/>
<path d="M5.61145 10.1591H2V19.3942C2.00014 19.7274 2.13258 20.047 2.36821 20.2826C2.60384 20.5182 2.92337 20.6507 3.2566 20.6508H20.7425C21.0757 20.6507 21.3952 20.5182 21.6309 20.2826C21.8665 20.047 21.9989 19.7274 21.9991 19.3942V17.0338H5.61145V10.1591Z" fill="black"/>
<path d="M5.61145 6.96712H17V3.3492H3.2566C2.92337 3.34934 2.60384 3.48178 2.36821 3.7174C2.13258 3.95303 2.00014 4.27256 2 4.60579V8.5H5.61145V6.96712Z" fill="black"/>
<path d="M20.7434 3.3492H18.3914V15.5H22V4.60579C21.9997 4.27261 21.8672 3.95317 21.6316 3.71758C21.3961 3.48199 21.0766 3.3495 20.7434 3.3492Z" fill="black"/>
<path d="M15.146 12.2631C16.308 12.2631 17.2499 11.3212 17.2499 10.1592C17.2499 8.99725 16.308 8.0553 15.146 8.0553C13.9841 8.0553 13.0421 8.99725 13.0421 10.1592C13.0421 11.3212 13.9841 12.2631 15.146 12.2631Z" fill="black"/>
</svg>

<svg xmlns="http://www.w3.org/2000/svg" width="24" height="24" fill="none" viewBox="0 0 24 24"><path fill="#000" d="M7 10.199v3.7c1.614.2 2.5.601 3.5 1.601h4.312c-.784-1.633-1.77-2.427-3.256-3.463C10.07 11.002 8.803 10.368 7 10.2"/><path fill="#000" d="M5.611 10.16H2v9.234a1.257 1.257 0 0 0 1.257 1.257h17.486a1.257 1.257 0 0 0 1.256-1.257v-2.36H5.611v-6.875Zm0-3.193H17V3.35H3.257A1.257 1.257 0 0 0 2 4.606V8.5h3.611V6.967M20.743 3.35h-2.352V15.5H22V4.606a1.258 1.258 0 0 0-1.257-1.257m-5.597 8.914a2.104 2.104 0 1 0 0-4.208 2.104 2.104 0 0 0 0 4.208"/></svg>
